assets/img/braze_icons/edit-05.svg

<svg fill="none" height="24" viewBox="0 0 24 24" width="24" xmlns="http://www.w3.org/2000/svg"><g clip-rule="evenodd" fill="#801ed7" fill-rule="evenodd"><path d="m6.7587 2.99998h4.2413c.5523 0 1 .44772 1 1 0 .55229-.4477 1-1 1h-4.2c-.85658 0-1.43887.00078-1.88896.03756-.43842.03582-.66262.10074-.81902.18043-.37632.19175-.68229.49771-.87403.87403-.07969.1564-.14462.38061-.18044.81902-.03677.45009-.03755 1.03238-.03755 1.88896v8.40002c0 .8566.00078 1.4389.03755 1.8889.03582.4385.10075.6627.18044.8191.19174.3763.49771.6823.87403.874.1564.0797.3806.1446.81902.1804.45009.0368 1.03238.0376 1.88896.0376h8.4c.8566 0 1.4389-.0008 1.889-.0376.4384-.0358.6626-.1007.819-.1804.3763-.1917.6823-.4977.874-.874.0797-.1564.1446-.3806.1804-.8191.0368-.45.0376-1.0323.0376-1.8889v-4.2c0-.5523.4477-1 1-1s1 .4477 1 1v4.2413c0 .805 0 1.4693-.0442 2.0105-.0459.5621-.1445 1.0788-.3918 1.5641-.3835.7527-.9954 1.3646-1.748 1.7481-.4854.2473-1.0021.3459-1.5642.3918-.5412.0442-1.2055.0442-2.0105.0442h-8.48262c-.80496 0-1.46932 0-2.01051-.0442-.56209-.0459-1.0788-.1445-1.56413-.3918-.75265-.3835-1.36457-.9954-1.74807-1.7481-.24729-.4853-.34585-1.002-.39178-1.5641-.044213-.5412-.044202-1.2055-.04419-2.0105v-8.48262c-.000012-.80497-.000023-1.46933.04419-2.01052.04593-.5621.14449-1.0788.39178-1.56414.3835-.75265.99542-1.36457 1.74807-1.74806.48533-.24729 1.00204-.34586 1.56413-.39178.5412-.04422 1.20556-.04421 2.01053-.0442z"/><path d="m17.7929 1.79287c1.2189-1.218946 3.1953-1.218944 4.4142.00001 1.219 1.21895 1.219 3.19526 0 4.41421l-9.5627 9.56271c-.0198.0198-.0394.0395-.0589.059-.2875.288-.5409.5419-.8464.7291-.2684.1645-.5611.2857-.8672.3592-.3484.0836-.7072.0833-1.11409.0829-.02754 0-.0553 0-.08329 0h-1.67455c-.55228 0-1-.4477-1-1v-1.6745c0-.028-.00002-.0558-.00005-.0833-.00038-.4069-.00071-.7657.08294-1.1141.0735-.3061.19471-.5988.3592-.8672.18723-.3055.44114-.559.72913-.8464.01949-.0195.03914-.0391.05894-.0589z"/></g></svg>

<svg width="24" height="24" viewBox="0 0 24 24" fill="none" xmlns="http://www.w3.org/2000/svg">
<path fill-rule="evenodd" clip-rule="evenodd" d="M6.7587 2.99998L11 2.99998C11.5523 2.99998 12 3.4477 12 3.99998C12 4.55227 11.5523 4.99998 11 4.99998H6.8C5.94342 4.99998 5.36113 5.00076 4.91104 5.03754C4.47262 5.07336 4.24842 5.13828 4.09202 5.21797C3.7157 5.40972 3.40973 5.71568 3.21799 6.092C3.1383 6.2484 3.07337 6.47261 3.03755 6.91102C3.00078 7.36111 3 7.9434 3 8.79998V17.2C3 18.0566 3.00078 18.6389 3.03755 19.0889C3.07337 19.5274 3.1383 19.7516 3.21799 19.908C3.40973 20.2843 3.7157 20.5903 4.09202 20.782C4.24842 20.8617 4.47262 20.9266 4.91104 20.9624C5.36113 20.9992 5.94342 21 6.8 21H15.2C16.0566 21 16.6389 20.9992 17.089 20.9624C17.5274 20.9266 17.7516 20.8617 17.908 20.782C18.2843 20.5903 18.5903 20.2843 18.782 19.908C18.8617 19.7516 18.9266 19.5274 18.9624 19.0889C18.9992 18.6389 19 18.0566 19 17.2V13C19 12.4477 19.4477 12 20 12C20.5523 12 21 12.4477 21 13V17.2413C21 18.0463 21 18.7106 20.9558 19.2518C20.9099 19.8139 20.8113 20.3306 20.564 20.8159C20.1805 21.5686 19.5686 22.1805 18.816 22.564C18.3306 22.8113 17.8139 22.9099 17.2518 22.9558C16.7106 23 16.0463 23 15.2413 23H6.75868C5.95372 23 5.28936 23 4.74817 22.9558C4.18608 22.9099 3.66937 22.8113 3.18404 22.564C2.43139 22.1805 1.81947 21.5686 1.43597 20.8159C1.18868 20.3306 1.09012 19.8139 1.04419 19.2518C0.999977 18.7106 0.999988 18.0463 1 17.2413V8.75868C0.999988 7.95371 0.999977 7.28935 1.04419 6.74816C1.09012 6.18606 1.18868 5.66936 1.43597 5.18402C1.81947 4.43137 2.43139 3.81945 3.18404 3.43596C3.66937 3.18867 4.18608 3.0901 4.74817 3.04418C5.28937 2.99996 5.95373 2.99997 6.7587 2.99998Z" fill="#801ED7"/>
<path fill-rule="evenodd" clip-rule="evenodd" d="M17.7929 1.79287C19.0118 0.573924 20.9882 0.573926 22.2071 1.79288C23.4261 3.01183 23.4261 4.98814 22.2071 6.20709L12.6444 15.7698C12.6246 15.7896 12.605 15.8093 12.5855 15.8288C12.298 16.1168 12.0446 16.3707 11.7391 16.5579C11.4707 16.7224 11.178 16.8436 10.8719 16.9171C10.5235 17.0007 10.1647 17.0004 9.75781 17C9.73027 17 9.70251 17 9.67452 17H7.99997C7.44769 17 6.99997 16.5523 6.99997 16V14.3255C6.99997 14.2975 6.99995 14.2697 6.99992 14.2422C6.99954 13.8353 6.99921 13.4765 7.08286 13.1281C7.15636 12.822 7.27757 12.5293 7.44206 12.2609C7.62929 11.9554 7.8832 11.7019 8.17119 11.4145C8.19068 11.395 8.21033 11.3754 8.23013 11.3556L17.7929 1.79287Z" fill="#801ED7"/>
</svg>
